X:88
T: DO TRUNKEN SIE
N: E1118
O: Europa, Mitteleuropa, Deutschland
R: Trink -, Zech - Lied
M: 4/4
L: 1/8
K: C
c2 | c4B4 | A6d2 | d3Bc2A2 | G4z2
G2 | c4B4 | A4E4 | G2G2F2F2 | E4z2
E2 | E4E4 | G6F2 | E4D4 | C4z2
E2 | G2G2G4 | G2G2G4 | A6A2 | A4z2
B2 | c2c2B4 | A4E4 | G8 | F8 | E8 | z6

